design/Casper.svg

<?xml version="1.0" encoding="UTF-8"?>
<svg width="533px" height="565px" viewBox="0 0 533 565" version="1.1" xmlns="http://www.w3.org/2000/svg" xmlns:xlink="http://www.w3.org/1999/xlink">
    <!-- Generator: Sketch 50 (54983) - http://www.bohemiancoding.com/sketch -->
    <title>Group</title>
    <desc>Created with Sketch.</desc>
    <defs></defs>
    <g id="Page-1" stroke="none" stroke-width="1" fill="none" fill-rule="evenodd">
        <g id="Casper2020" transform="translate(-84.000000, -68.000000)" fill-rule="nonzero">
            <g id="Group" transform="translate(84.000000, 68.000000)">
                <path d="M76.1299116,563.63507 L74.2579328,563.63507 C40.3077542,515.315423 66.354343,454.513794 80.3857008,427.926044 C96.3057008,398.366044 98.7857008,390.246044 94.9257008,393.086044 C80.5657008,416.506044 58.0657008,453.826044 49.3057008,492.196044 C44.7357008,512.186044 43.9057008,532.436044 49.8357008,551.166044 C51.0287677,554.938513 53.1155672,559.094855 56.0960993,563.63507 L52.9710661,563.63507 C27.566719,566.70569 13.4078788,558.614333 10.4945455,539.361 C6.12454552,510.481 -5.38,526.75 4.58,496.82 C25.69,433.39 70.27,372.46 101.92,334.82 C128.87,296.52 136.81,265.64 139.58,226.46 C141.83,172.89 101.66,12.89 253.1,0.7 C259.09,0.22 264.84,-0.01 270.35,6.21936313e-15 C405.87,0.19 398.25,143 397.401,220.01 C396.85,270.47 424.751,304.63 453.281,340.62 C478.771,370.74 512.141,414.769 531.251,465.309 C538.918462,485.570687 519.367849,510.009658 472.599162,538.625914 C471.021015,537.911923 469.458118,537.235051 467.915701,536.595044 C472.856701,516.505044 471.875701,496.144044 467.266701,476.785044 C457.165701,434.325044 429.396701,396.715044 408.256701,378.005044 C404.346701,377.845044 404.726701,381.265044 412.596701,388.905044 C432.096701,406.845044 474.726701,471.255044 451.656701,531.065044 C445.066701,529.376044 402.785701,465.890533 366.462798,465.890533 C321.664689,465.890533 284.601512,553.096058 248.379672,551.166044 C175.93518,547.305972 155.403747,492.83181 151.383498,489.602866 C144.002977,483.669122 79.9187395,529.226614 76.1299116,563.63507 Z" id="Combined-Shape" fill="#3A6DCB"></path>
                <path d="M336.77,224.69 C334.14,219.54 328.77,214.64 319.63,210.89 L319.61,210.88 L319.58,210.87 C300.57,202.73 292.32,202.15 281.71,195.25 C264.44,184.15 250.17,180.26 238.31,180.31 C232.1,180.33 226.55,181.43 221.58,183.15 C207.13,188.12 197.54,198.49 191.53,204.18 L191.52,204.19 C191.52,204.2 191.51,204.2 191.51,204.21 C190.33,205.33 188.81,206.35 185.13,209.05 C181.42,211.76 175.86,215.84 167.86,221.84 C160.75,227.17 158.44,234.11 160.9,242.24 C163.35,250.37 171.19,259.75 185.53,267.86 L185.55,267.88 L185.58,267.89 C194.48,273.12 200.56,280.17 207.54,285.78 C211.03,288.58 214.7,291.08 219.12,292.97 C223.54,294.86 228.7,296.14 235.16,296.52 C250.32,297.4 261.48,292.85 271.33,287.21 C281.2,281.58 289.559,274.69 299.15,271.58 L299.17,271.57 L299.191,271.56 C318.85,265.42 332.871,253.05 337.26,241.3 C339.46,235.42 339.39,229.84 336.77,224.69 Z" id="path9" fill="#EBE7DD"></path>
                <path d="M286.89,253.71 C271.24925,261.8627 252.98,271.75 233.54,271.75 C214.11,271.75 198.76,262.77 187.72,254.02 C182.2,249.65 177.72,245.3 174.34,242.14 C168.47566,237.51097 169.17812,231.01832 171.58754,231.21 C175.62617,231.71418 176.23681,237.03168 178.78,239.41 C182.22,242.63 186.53,246.8 191.75,250.94 C202.19,259.21 216.11,267.26 233.54,267.26 C250.94,267.26 271.25174,257.04483 283.65,250.09 C290.67421,246.14976 299.61224,239.0869 306.90658,233.73258 C312.4873,229.63611 312.2838,224.70337 316.89167,225.24042 C321.49953,225.77747 318.09084,230.70026 311.6379,236.33195 C305.18495,241.96364 295.08972,249.43592 286.89,253.71 Z" id="path11" fill="#3B79CB"></path>
                <path d="M338.51,166.03 C338.59,176.12 336.85,184.71 333.02,193.48 C330.84,198.48 328.331,202.68 325.321,206.32 C324.3,205.83 323.241,205.36 322.14,204.91 C318.33,203.28 314.96,201.94 311.941,200.8 C308.92,199.66 306.56309,198.88105 304.13209,198.04105 C305.89309,195.91105 309.36209,193.40105 310.65309,190.25105 C312.61309,185.50105 313.57309,180.86105 313.75309,175.33105 C313.75309,175.11105 313.82309,174.92105 313.82309,174.66105 C313.93309,169.36105 313.23309,164.83105 311.68309,160.19105 C310.06309,155.32105 308.00209,151.82105 305.02309,148.91105 C302.03309,146.00105 299.05309,144.68105 295.47309,144.56105 C295.30309,144.55105 295.14309,144.55105 294.97309,144.55105 C291.61309,144.56105 288.69309,145.72105 285.67209,148.24105 C282.50209,150.89105 280.15209,154.28105 278.19309,159.00105 C276.24309,163.72105 275.28309,168.40105 275.09209,173.96105 C275.06309,174.18105 275.06309,174.37105 275.06309,174.59105 C274.99309,177.65105 275.19309,180.45105 275.66309,183.17105 C268.78309,179.74105 259.981,177.24 253.901,175.79 C253.551,173.16 253.351,170.45 253.291,167.61 L253.291,166.84 C253.181,156.78 254.831,148.15 258.701,139.39 C262.571,130.62 267.361,124.32 274.1,119.19 C280.85,114.07 287.481,111.72 295.33,111.64 L295.7,111.64 C303.38,111.64 309.95,113.9 316.7,118.79 C323.55,123.77 328.49,129.99 332.47,138.69 C336.37,147.17 338.25,155.46 338.441,165.29 C338.44,165.55 338.44,165.77 338.51,166.03 Z" id="path15" fill="#EBE7DD"></path>
                <path d="M222.43,176.08 C221.42,176.37 220.44,176.68 219.47,177.01 C213.97,178.91 209.60314,181.00686 205.38314,183.79686 C205.79314,180.87686 205.85314,177.91686 205.53314,174.60686 C205.50314,174.42686 205.50314,174.27686 205.50314,174.09686 C205.06314,169.70686 204.13314,166.02686 202.58314,162.30686 C200.93314,158.43686 199.08314,155.70686 196.65314,153.60686 C194.45314,151.70686 192.37314,150.82686 190.07314,150.84686 C189.84314,150.84686 189.60314,150.85686 189.36314,150.87686 C186.78314,151.09686 184.64314,152.35686 182.61314,154.82686 C180.59314,157.28686 179.26314,160.34686 178.30314,164.40686 C177.34314,168.45686 177.09314,172.43686 177.49314,177.00686 C177.49314,177.18686 177.53314,177.33686 177.53314,177.51686 C177.97314,181.94686 178.86314,185.62686 180.44314,189.34686 C182.06314,193.17686 183.94314,195.90686 186.37314,198.00686 C186.78314,198.35686 187.18314,198.67686 187.58314,198.95686 C185.06314,200.90686 183.37,202.29 181.29,203.81 C179.96,204.78 178.38,205.94 176.54,207.3 C172.53,203.54 169.4,198.82 166.66,192.59 C163.42,185.23 161.69,177.86 161.17,169.16 L161.17,169.09 C160.69,160.39 161.54,152.91 163.93,145.17 C166.33,137.43 169.53,131.83 174.18,127.23 C178.82,122.62 183.5,120.3 189.14,120.01 C189.58,119.99 190.01,119.98 190.44,119.98 C195.55,119.99 200.11,121.69 204.83,125.46 C209.95,129.55 213.82,134.78 217.06,142.15 C220.31,149.52 222.04,156.89 222.52,165.59 L222.52,165.66 C222.75,169.31 222.72,172.75 222.43,176.08 Z" id="path17" fill="#EBE7DD"></path>
                <path d="M248.08661,196.88969 C248.73345,198.96593 252.07962,198.6218 254.0129,199.61761 C255.70932,200.49139 257.07376,202.40652 258.98119,202.46159 C260.80162,202.51419 263.63478,201.83116 263.8716,200.02544 C264.18446,197.63981 260.70077,196.12379 258.45905,195.24981 C255.57436,194.1251 251.87849,193.55447 249.17246,195.05908 C248.55236,195.40385 247.87557,196.21236 248.08661,196.88972 L248.08661,196.88969 Z" id="path28396-7" fill="#3B6FCC"></path>
                <path d="M228.32226,196.88969 C227.67542,198.96593 224.32925,198.6218 222.39597,199.61761 C220.69955,200.49139 219.33511,202.40652 217.42768,202.46159 C215.60725,202.51419 212.77409,201.83116 212.53727,200.02544 C212.22441,197.63981 215.7081,196.12379 217.94982,195.24981 C220.83451,194.1251 224.53038,193.55447 227.23641,195.05908 C227.85651,195.40385 228.5333,196.21236 228.32226,196.88972 L228.32226,196.88969 Z" id="path5461" fill="#3B71CB"></path>
            </g>
        </g>
    </g>
</svg>

<svg width="533" height="565" xmlns="http://www.w3.org/2000/svg"><g fill="none"><path d="M76.13 563.635h-1.872c-33.95-48.32-7.904-109.121 6.128-135.709 15.92-29.56 18.4-37.68 14.54-34.84-14.36 23.42-36.86 60.74-45.62 99.11-4.57 19.99-5.4 40.24.53 58.97 1.193 3.773 3.28 7.929 6.26 12.47h-3.125c-25.404 3.07-39.563-5.022-42.476-24.275-4.37-28.88-15.875-12.611-5.915-42.541 21.11-63.43 65.69-124.36 97.34-162 26.95-38.3 34.89-69.18 37.66-108.36C141.83 172.89 101.66 12.89 253.1.7c5.99-.48 11.74-.71 17.25-.7 135.52.19 127.9 143 127.051 220.01-.551 50.46 27.35 84.62 55.88 120.61 25.49 30.12 58.86 74.149 77.97 124.689 7.667 20.262-11.883 44.7-58.652 73.317a161.867 161.867 0 0 0-4.683-2.031c4.94-20.09 3.96-40.451-.65-59.81-10.1-42.46-37.87-80.07-59.01-98.78-3.91-.16-3.53 3.26 4.34 10.9 19.5 17.94 62.13 82.35 39.06 142.16-6.59-1.689-48.87-65.174-85.193-65.174-44.798 0-81.861 87.205-118.083 85.275-72.445-3.86-92.976-58.334-96.997-61.563-7.38-5.934-71.464 39.624-75.253 74.032z" fill="#3A6DCB"/><path d="M336.77 224.69c-2.63-5.15-8-10.05-17.14-13.8l-.02-.01-.03-.01c-19.01-8.14-27.26-8.72-37.87-15.62-17.27-11.1-31.54-14.99-43.4-14.94-6.21.02-11.76 1.12-16.73 2.84-14.45 4.97-24.04 15.34-30.05 21.03l-.01.01c0 .01-.01.01-.01.02-1.18 1.12-2.7 2.14-6.38 4.84-3.71 2.71-9.27 6.79-17.27 12.79-7.11 5.33-9.42 12.27-6.96 20.4 2.45 8.13 10.29 17.51 24.63 25.62l.02.02.03.01c8.9 5.23 14.98 12.28 21.96 17.89 3.49 2.8 7.16 5.3 11.58 7.19 4.42 1.89 9.58 3.17 16.04 3.55 15.16.88 26.32-3.67 36.17-9.31 9.87-5.63 18.229-12.52 27.82-15.63l.02-.01.021-.01c19.659-6.14 33.68-18.51 38.069-30.26 2.2-5.88 2.13-11.46-.49-16.61z" fill="#EBE7DD"/><path d="M286.89 253.71c-15.64 8.153-33.91 18.04-53.35 18.04-19.43 0-34.78-8.98-45.82-17.73-5.52-4.37-10-8.72-13.38-11.88-5.864-4.629-5.162-11.122-2.752-10.93 4.038.504 4.649 5.822 7.192 8.2 3.44 3.22 7.75 7.39 12.97 11.53 10.44 8.27 24.36 16.32 41.79 16.32 17.4 0 37.712-10.215 50.11-17.17 7.024-3.94 15.962-11.003 23.257-16.357 5.58-4.097 5.377-9.03 9.985-8.493 4.608.537 1.199 5.46-5.254 11.092-6.453 5.632-16.548 13.104-24.748 17.378z" fill="#3B79CB"/><path d="M338.51 166.03c.08 10.09-1.66 18.68-5.49 27.45-2.18 5-4.689 9.2-7.699 12.84-1.021-.49-2.08-.96-3.181-1.41-3.81-1.63-7.18-2.97-10.199-4.11-3.021-1.14-5.378-1.919-7.809-2.759 1.761-2.13 5.23-4.64 6.521-7.79 1.96-4.75 2.92-9.39 3.1-14.92 0-.22.07-.41.07-.67.11-5.3-.59-9.83-2.14-14.47-1.62-4.87-3.68-8.37-6.66-11.28-2.99-2.91-5.97-4.23-9.55-4.35-.17-.01-.33-.01-.5-.01-3.36.01-6.28 1.17-9.3 3.69-3.17 2.65-5.52 6.04-7.48 10.76-1.95 4.72-2.91 9.4-3.1 14.96-.03.22-.03.41-.03.63-.07 3.06.13 5.86.6 8.58-6.88-3.43-15.682-5.931-21.762-7.381-.35-2.63-.55-5.34-.61-8.18v-.77c-.11-10.06 1.54-18.69 5.41-27.45 3.87-8.77 8.66-15.07 15.399-20.2 6.75-5.12 13.381-7.47 21.23-7.55h.37c7.68 0 14.25 2.26 21 7.15 6.85 4.98 11.79 11.2 15.77 19.9 3.9 8.48 5.78 16.77 5.971 26.6-.001.26-.001.48.069.74zm-116.08 10.05c-1.01.29-1.99.6-2.96.93-5.5 1.9-9.867 3.997-14.087 6.787.41-2.92.47-5.88.15-9.19-.03-.18-.03-.33-.03-.51-.44-4.39-1.37-8.07-2.92-11.79-1.65-3.87-3.5-6.6-5.93-8.7-2.2-1.9-4.28-2.78-6.58-2.76-.23 0-.47.01-.71.03-2.58.22-4.72 1.48-6.75 3.95-2.02 2.46-3.35 5.52-4.31 9.58-.96 4.05-1.21 8.03-.81 12.6 0 .18.04.33.04.51.44 4.43 1.33 8.11 2.91 11.83 1.62 3.83 3.5 6.56 5.93 8.66.41.35.81.67 1.21.95-2.52 1.95-4.213 3.333-6.293 4.853-1.33.97-2.91 2.13-4.75 3.49-4.01-3.76-7.14-8.48-9.88-14.71-3.24-7.36-4.97-14.73-5.49-23.43v-.07c-.48-8.7.37-16.18 2.76-23.92 2.4-7.74 5.6-13.34 10.25-17.94 4.64-4.61 9.32-6.93 14.96-7.22.44-.02.87-.03 1.3-.03 5.11.01 9.67 1.71 14.39 5.48 5.12 4.09 8.99 9.32 12.23 16.69 3.25 7.37 4.98 14.74 5.46 23.44v.07c.23 3.65.2 7.09-.09 10.42z" fill="#EBE7DD"/><path d="M248.087 196.89c.646 2.076 3.993 1.732 5.926 2.728 1.696.873 3.06 2.789 4.968 2.844 1.82.052 4.654-.63 4.89-2.437.313-2.385-3.17-3.901-5.412-4.775-2.885-1.125-6.58-1.696-9.287-.19-.62.344-1.296 1.152-1.085 1.83z" fill="#3B6FCC"/><path d="M228.322 196.89c-.647 2.076-3.993 1.732-5.926 2.728-1.696.873-3.06 2.789-4.968 2.844-1.82.052-4.654-.63-4.89-2.437-.314-2.385 3.17-3.901 5.412-4.775 2.885-1.125 6.58-1.696 9.286-.19.62.344 1.297 1.152 1.086 1.83z" fill="#3B71CB"/></g></svg>
